static/images/team-frame-kim.svg

<svg width="412" height="412" viewBox="0 0 412 412" fill="none" xmlns="http://www.w3.org/2000/svg">
<g clip-path="url(#clip0_1056_1618)">
<rect width="411.766" height="411.766" rx="12.1405" fill="#F6F6F1"/>
<path d="M390.774 83.1209C390.058 82.8524 388.517 83.4681 388.07 84.7939C387.718 85.8407 386.248 86.5073 386.303 87.7468C385.255 89.5113 383.921 91.1801 383.399 93.1191C383.206 93.238 383.131 93.3915 383.174 93.5797C380.549 97.5435 377.69 101.415 375.83 105.678C375.676 106.553 374.364 107.278 375.071 108.262C374.992 108.703 373.571 108.638 374.391 109.416C370.814 113.709 369.094 118.643 366.674 123.335C365.009 125.139 363.748 127.06 363.742 129.344C362.081 130.858 361.099 132.563 361.23 134.582C360.746 134.883 360.011 134.872 359.812 135.528C359.218 137.411 357.266 138.913 357.214 140.95C356.623 142.169 354.664 143.148 355.905 144.687C355.59 145.372 354.072 146.277 355.118 146.654C356.401 147.117 356.248 145.566 356.705 144.879C358.151 143.787 357.715 142.415 357.894 141.134C358.346 140.125 360.797 140.242 359.989 138.522C362.353 136.512 363.177 133.931 364.146 131.404C364.426 130.825 364.706 130.245 364.986 129.666C366.276 128.256 366.821 126.607 367.456 124.986C370.185 124.214 369.527 121.933 370.427 120.385C372.767 116.354 375.937 112.616 377.378 108.263C379.43 107.482 377.834 106.513 377.898 105.629C378.796 105.381 379.383 104.912 379.425 104.052C380.723 103.096 381.657 102.024 381.269 100.53C381.519 99.2314 383.762 98.5346 383.083 96.9545C384.24 96.3573 384.579 95.555 384.146 94.5577C384.521 94.0139 384.897 93.4709 385.272 92.9278C387.067 92.4577 386.508 90.9931 387.137 90.0305C387.383 89.6573 387.63 89.2844 387.876 88.9113C389.352 88.0284 389.554 86.5704 390.223 85.3413C390.615 84.6223 392.206 83.6581 390.774 83.1209Z" fill="#FC6B7E"/>
<path d="M381.705 76.3804C381.264 75.6655 381.544 74.3215 380.316 74.3379C378.82 74.3584 379.343 75.679 378.985 76.435C378.568 77.3123 378.144 78.1872 377.722 79.0637C377.041 80.2462 376.361 81.4287 375.681 82.6114C375.688 83.0126 375.696 83.4138 375.704 83.815C373.387 86.2175 372.899 89.277 371.069 91.8546C369.004 92.5452 371.072 94.2329 369.666 95.082C367.569 97.6308 365.687 100.233 365.987 103.378C365.988 103.377 365.99 103.377 365.992 103.377C366.001 103.378 366.055 103.397 366.055 103.397C363.261 104.277 363.895 106.968 362.185 108.422C361.677 110.012 359.037 111.078 360.09 113.035C361.71 112.28 362.09 110.235 364.242 110.017C364.687 109.973 365.178 109.454 364.759 109.109C364.447 108.853 363.79 108.915 363.286 108.835C363.897 107.345 366.633 106.959 366.242 104.95C367.29 104.691 367.39 103.918 367.611 103.21C367.524 101.946 370.591 101.223 368.846 99.6753C369.9 99.1365 370.958 98.5991 370.567 97.3405C370.767 96.9523 370.966 96.5639 371.166 96.1758C372.202 95.1288 371.877 93.2628 373.992 92.8647C373.851 92.5304 373.71 92.1961 373.568 91.8615C374.189 91.5318 375.134 91.4061 374.795 90.4722C375.495 88.6337 377.239 86.988 376.813 84.9424C376.928 84.7431 377.042 84.5439 377.155 84.3444C377.644 83.3568 378.134 82.3695 378.623 81.382C379.641 80.5716 379.724 79.4494 380.215 78.4631C381.368 78.0898 382.602 77.8336 381.705 76.3804Z" fill="#FC6B7E"/>
<path d="M402.471 122.031C403.105 121.473 403.31 120.837 403.188 120.138C403.614 119.334 404.869 118.613 403.989 117.675C403.651 117.314 403.117 117.678 402.695 117.919C401.341 118.692 402.275 119.343 402.557 120.03C401.781 120.691 398.553 119.816 400.564 122.222C398.496 123.448 400.083 125.688 398.22 126.972C397.346 128.101 396.454 129.229 397.685 130.613C397.824 129.112 399.171 128.111 399.728 126.809C400.38 125.126 402.398 123.912 402.471 122.031Z" fill="#FC6B7E"/>
<path d="M395.915 132.295C393.691 132.031 393.984 134.785 392.932 136.146C392.232 137.012 391.83 137.881 392.446 138.951C393.749 138.344 393.993 137.431 394.3 136.551C394.806 135.03 397.019 132.426 395.915 132.295Z" fill="#FC6B7E"/>
<path d="M355.221 146.99C352.839 148.505 353.076 150.602 351.67 151.937C351.145 152.951 350.185 153.973 351.456 155.088C352.193 154.176 352.899 153.352 352.532 152.265C353.93 150.834 355.034 149.322 355.221 146.99Z" fill="#FC6B7E"/>
<path d="M335.118 160.751C336.308 158.856 336.454 158.293 336.273 157.149C335.729 158.43 334.825 159.492 335.118 160.751Z" fill="#FC6B7E"/>
<path d="M358.037 117.34C357.934 117.202 356.758 117.48 356.567 118.089C356.364 118.74 356.182 119.541 356.877 119.919C357.094 120.036 357.92 119.444 358.572 119.125C358.403 118.447 358.383 117.8 358.037 117.34Z" fill="#FC6B7E"/>
<path d="M388.827 141.954C388.916 143.044 389.519 143.504 390.37 143.666C390.477 143.686 391.3 142.681 391.176 142.372C390.846 141.548 389.758 142.009 388.827 141.954Z" fill="#FC6B7E"/>
<path d="M349.006 130.479C349.644 132.299 347.705 133.08 348.697 134.495C349.488 133.282 350.632 132.411 349.006 130.479Z" fill="#FC6B7E"/>
<path d="M405.261 114.783C407.465 114.488 407.602 113.286 408.148 112.365C407.701 112.188 407.255 112.011 406.809 111.835C406.33 112.746 405.852 113.657 405.261 114.783Z" fill="#FC6B7E"/>
<path d="M411.406 103.894C411.407 103.885 411.409 103.876 411.411 103.867C411.41 103.866 411.409 103.865 411.41 103.863C411.38 103.88 411.354 103.899 411.323 103.917C411.35 103.909 411.378 103.902 411.406 103.894Z" fill="#FC6B7E"/>
<path d="M410.107 106.839C407.776 107.048 409.762 108.525 408.912 109.169C408.168 110.089 407.423 111.01 406.679 111.929C407.112 112.104 407.544 112.279 407.978 112.453C408.939 110.846 410.591 109.477 410.783 107.602C411.385 106.584 412.076 105.588 412.562 104.54C413.019 103.552 412.287 103.655 411.555 103.864C411.384 104.94 411.286 106.035 410.107 106.839Z" fill="#FC6B7E"/>
<path d="M353.951 124.163C353.33 123.879 352.767 124.062 352.39 124.66C352.181 125.129 352.29 125.567 352.856 125.606C353.477 125.649 354.166 125.419 354.393 124.817C354.463 124.63 354.192 124.274 353.951 124.163Z" fill="#FC6B7E"/>
<path d="M420.423 88.8837C418.016 89.1984 419.253 90.8896 418.613 91.8716C415.697 92.7947 417.288 95.482 415.523 96.8552C414.163 97.4631 414.642 98.5795 414.268 99.4607C412.533 100.649 410.855 101.862 411.314 103.971C413.353 102.71 414.795 101.093 415.491 99.0342C417.439 97.1171 418.091 94.7515 419.171 92.5344C419.842 91.3991 420.513 90.2638 421.184 89.1286C421.717 88.082 422.251 87.0348 422.784 85.9882C421.444 86.7172 420.461 87.5739 420.423 88.8837Z" fill="#FC6B7E"/>
<path d="M389.016 145.199C387.983 145.351 387.28 145.666 387.226 146.56C386.317 147.397 384.592 148.42 385.9 149.308C386.806 149.922 387.47 148.306 388.137 147.588C389.472 146.944 388.279 145.962 389.016 145.199Z" fill="#FC6B7E"/>
<path d="M383.788 152.912C381.518 153.63 381.914 155.556 381.023 156.898C380.224 158.377 378.698 159.792 379.919 161.987C380.77 160.315 381.392 159.096 382.013 157.877C382.72 156.492 383.428 155.109 384.136 153.725C384.655 152.625 385.734 151.637 385.592 150.299C383.975 150.846 384.366 152.079 383.788 152.912Z" fill="#FC6B7E"/>
<path d="M342.676 145.413C342.246 145.112 341.595 145.347 341.407 145.717C341.233 146.063 341.466 146.517 341.52 146.924C341.931 146.75 342.344 146.575 342.826 146.371C343.489 145.962 342.975 145.621 342.676 145.413Z" fill="#FC6B7E"/>
<path d="M418.871 36.2287C418.161 35.8665 417.04 36.2864 416.896 37.4186C415.53 38.5392 414.681 39.8952 414.148 41.3949C413.069 42.3866 411.822 43.2939 411.641 44.7399C411.447 44.852 411.326 45.003 411.275 45.1943C409.833 45.9761 409.413 47.0682 409.654 48.3607C409.493 48.5493 409.485 48.7291 409.629 48.898C409.071 49.4214 408.513 49.9446 407.955 50.4681C406.65 51.9439 405.514 53.4741 405.366 55.3214C405.045 55.9341 403.429 55.5826 403.89 56.7777C403.358 58.4236 401.1 59.585 401.594 61.5187C400.436 63.2173 398.417 64.5809 398.394 66.7221C397.126 67.6506 396.39 68.7677 396.418 70.1573C395.659 70.8268 394.623 71.3496 394.645 72.4345C394.52 72.5982 394.46 72.7723 394.462 72.9579C393.936 73.5765 393.571 74.2139 393.919 74.9299C392.45 76.3254 391.163 77.7784 391.404 79.7122C390.793 80.6461 389.664 81.468 390.017 82.8776C391.721 82.2098 393.086 81.6459 393.069 79.9797C393.672 78.3875 395.812 77.2343 395.343 75.3368C395.854 74.8094 396.365 74.2826 396.877 73.7554C397.063 73.3572 397.248 72.9589 397.434 72.5609C397.676 71.7198 398.928 71.1973 398.676 70.2004C399.217 69.423 399.587 68.6303 399.336 67.7818C403.041 67.0557 401.975 63.8896 403.61 62.1053C403.876 61.5065 404.142 60.9079 404.408 60.3084C405.224 59.7417 405.107 59.1703 404.645 58.5976C407.178 58.236 406.452 56.2784 407.23 55.0568C408.738 54.7871 408.377 53.5419 408.966 52.7928C409.685 51.8715 410.405 50.9503 411.124 50.0292C411.467 49.2433 411.811 48.4577 412.154 47.6721C412.492 47.0622 412.83 46.4524 413.167 45.8425C413.358 45.3996 414.769 45.5539 414.032 44.6576C414.796 44.0243 415.526 43.381 415.157 42.4146C416.975 41.2187 417.287 39.3762 418.209 37.7955C418.294 37.2124 419.917 36.7633 418.871 36.2287Z" fill="#FC6B7E"/>
<path d="M343.295 143.352C343.915 143.477 343.994 142.956 344.284 142.533C344.247 142.366 344.196 142.129 344.143 141.892C343.776 142.141 343.331 142.35 343.072 142.658C342.954 142.8 343.125 143.318 343.295 143.352Z" fill="#FC6B7E"/>
<path d="M347.6 135.046C347.207 135.479 346.862 135.709 346.817 135.949C346.77 136.202 346.918 136.561 347.145 136.698C347.462 136.889 347.916 136.69 347.938 136.343C347.963 135.969 347.76 135.607 347.6 135.046Z" fill="#FC6B7E"/>
</g>
<defs>
<clipPath id="clip0_1056_1618">
<rect width="411.766" height="411.766" rx="12.1405" fill="white"/>
</clipPath>
</defs>
</svg>

<svg xmlns="http://www.w3.org/2000/svg" width="412" height="412" fill="none" viewBox="0 0 412 412"><g clip-path="url(#a)"><rect width="411.766" height="411.766" fill="#f6f6f1" rx="12.14"/><path fill="#fc6b7e" d="M390.774 83.12c-.716-.268-2.257.348-2.704 1.674-.352 1.047-1.822 1.713-1.767 2.953-1.048 1.764-2.382 3.433-2.904 5.372q-.29.178-.225.46c-2.625 3.965-5.484 7.836-7.344 12.099-.154.875-1.466 1.6-.759 2.584-.079.441-1.5.376-.68 1.154-3.577 4.293-5.297 9.227-7.717 13.919-1.665 1.804-2.926 3.725-2.932 6.009-1.661 1.514-2.643 3.219-2.512 5.238-.484.301-1.219.29-1.418.946-.594 1.883-2.546 3.385-2.598 5.422-.591 1.219-2.55 2.198-1.309 3.737-.315.685-1.833 1.59-.787 1.967 1.283.463 1.13-1.088 1.587-1.775 1.446-1.092 1.01-2.464 1.189-3.745.452-1.009 2.903-.892 2.095-2.612 2.364-2.01 3.188-4.591 4.157-7.118l.84-1.738c1.29-1.41 1.835-3.059 2.47-4.68 2.729-.772 2.071-3.053 2.971-4.601 2.34-4.031 5.51-7.769 6.951-12.122 2.052-.781.456-1.75.52-2.634.898-.248 1.485-.717 1.527-1.577 1.298-.956 2.232-2.028 1.844-3.522.25-1.299 2.493-1.995 1.814-3.576 1.157-.597 1.496-1.399 1.063-2.396l1.126-1.63c1.795-.47 1.236-1.935 1.865-2.897l.739-1.12c1.476-.883 1.678-2.34 2.347-3.57.392-.719 1.983-1.683.551-2.22M381.705 76.38c-.441-.715-.161-2.058-1.389-2.042-1.496.02-.973 1.341-1.331 2.097-.417.877-.841 1.752-1.263 2.629l-2.041 3.547.023 1.204c-2.317 2.403-2.805 5.462-4.635 8.04-2.065.69.003 2.378-1.403 3.227-2.097 2.549-3.979 5.151-3.679 8.296l.005-.001c.009.001.063.02.063.02-2.794.88-2.16 3.571-3.87 5.025-.508 1.59-3.148 2.656-2.095 4.613 1.62-.755 2-2.8 4.152-3.018.445-.044.936-.563.517-.908-.312-.256-.969-.194-1.473-.274.611-1.49 3.347-1.876 2.956-3.885 1.048-.259 1.148-1.032 1.369-1.74-.087-1.264 2.98-1.987 1.235-3.535 1.054-.538 2.112-1.076 1.721-2.334l.599-1.165c1.036-1.047.711-2.913 2.826-3.311l-.424-1.003c.621-.33 1.566-.456 1.227-1.39.7-1.838 2.444-3.484 2.018-5.53q.173-.298.342-.598l1.468-2.962c1.018-.81 1.101-1.933 1.592-2.919 1.153-.373 2.387-.63 1.49-2.083M402.471 122.031c.634-.558.839-1.194.717-1.893.426-.804 1.681-1.525.801-2.463-.338-.361-.872.003-1.294.244-1.354.773-.42 1.424-.138 2.111-.776.661-4.004-.214-1.993 2.192-2.068 1.226-.481 3.466-2.344 4.75-.874 1.129-1.766 2.257-.535 3.641.139-1.501 1.486-2.502 2.043-3.804.652-1.683 2.67-2.897 2.743-4.778M395.915 132.295c-2.224-.264-1.931 2.49-2.983 3.851-.7.866-1.102 1.735-.486 2.805 1.303-.607 1.547-1.52 1.854-2.4.506-1.521 2.719-4.125 1.615-4.256M355.221 146.99c-2.382 1.515-2.145 3.612-3.551 4.947-.525 1.014-1.485 2.036-.214 3.151.737-.912 1.443-1.736 1.076-2.823 1.398-1.431 2.502-2.943 2.689-5.275M335.118 160.751c1.19-1.895 1.336-2.458 1.155-3.602-.544 1.281-1.448 2.343-1.155 3.602M358.037 117.34c-.103-.138-1.279.14-1.47.749-.203.651-.385 1.452.31 1.83.217.117 1.043-.475 1.695-.794-.169-.678-.189-1.325-.535-1.785M388.827 141.954c.089 1.09.692 1.55 1.543 1.712.107.02.93-.985.806-1.294-.33-.824-1.418-.363-2.349-.418M349.006 130.479c.638 1.82-1.301 2.601-.309 4.016.791-1.213 1.935-2.084.309-4.016M405.261 114.783c2.204-.295 2.341-1.497 2.887-2.418l-1.339-.53zM411.406 103.894l.005-.027q-.002-.001-.001-.004c-.03.017-.056.036-.087.054z"/><path fill="#fc6b7e" d="M410.107 106.839c-2.331.209-.345 1.686-1.195 2.33l-2.233 2.76 1.299.524c.961-1.607 2.613-2.976 2.805-4.851.602-1.018 1.293-2.014 1.779-3.062.457-.988-.275-.885-1.007-.676-.171 1.076-.269 2.171-1.448 2.975M353.951 124.163c-.621-.284-1.184-.101-1.561.497-.209.469-.1.907.466.946.621.043 1.31-.187 1.537-.789.07-.187-.201-.543-.442-.654M420.423 88.884c-2.407.314-1.17 2.006-1.81 2.988-2.916.923-1.325 3.61-3.09 4.983-1.36.608-.881 1.724-1.255 2.606-1.735 1.188-3.413 2.401-2.954 4.51 2.039-1.261 3.481-2.878 4.177-4.937 1.948-1.917 2.6-4.283 3.68-6.5l2.013-3.405 1.6-3.14c-1.34.728-2.323 1.585-2.361 2.895M389.016 145.199c-1.033.152-1.736.467-1.79 1.361-.909.837-2.634 1.86-1.326 2.748.906.614 1.57-1.002 2.237-1.72 1.335-.644.142-1.626.879-2.389M383.788 152.912c-2.27.718-1.874 2.644-2.765 3.986-.799 1.479-2.325 2.894-1.104 5.089l2.094-4.11q1.06-2.077 2.123-4.152c.519-1.1 1.598-2.088 1.456-3.426-1.617.547-1.226 1.78-1.804 2.613M342.676 145.413c-.43-.301-1.081-.066-1.269.304-.174.346.059.8.113 1.207l1.306-.553c.663-.409.149-.75-.15-.958M418.871 36.229c-.71-.362-1.831.057-1.975 1.19-1.366 1.12-2.215 2.476-2.748 3.976-1.079.992-2.326 1.899-2.507 3.345a.73.73 0 0 0-.366.454c-1.442.782-1.862 1.874-1.621 3.167q-.241.283-.025.537l-1.674 1.57c-1.305 1.476-2.441 3.006-2.589 4.853-.321.613-1.937.262-1.476 1.457-.532 1.646-2.79 2.807-2.296 4.74-1.158 1.7-3.177 3.063-3.2 5.204-1.268.929-2.004 2.046-1.976 3.435-.759.67-1.795 1.193-1.773 2.278a.83.83 0 0 0-.183.523c-.526.618-.891 1.256-.543 1.972-1.469 1.395-2.756 2.848-2.515 4.782-.611.934-1.74 1.756-1.387 3.166 1.704-.668 3.069-1.232 3.052-2.898.603-1.593 2.743-2.746 2.274-4.643l1.534-1.582.557-1.194c.242-.841 1.494-1.364 1.242-2.36.541-.778.911-1.57.66-2.42 3.705-.725 2.639-3.891 4.274-5.676l.798-1.797c.816-.566.699-1.138.237-1.71 2.533-.362 1.807-2.32 2.585-3.541 1.508-.27 1.147-1.515 1.736-2.264l2.158-2.764 1.03-2.357 1.013-1.83c.191-.442 1.602-.288.865-1.184.764-.634 1.494-1.277 1.125-2.243 1.818-1.196 2.13-3.039 3.052-4.62.085-.583 1.708-1.032.662-1.566M343.295 143.352c.62.125.699-.396.989-.819l-.141-.641c-.367.249-.812.458-1.071.766-.118.142.053.66.223.694M347.6 135.046c-.393.433-.738.663-.783.903-.047.253.101.612.328.749.317.191.771-.008.793-.355.025-.374-.178-.736-.338-1.297"/></g><defs><clipPath id="a"><rect width="411.766" height="411.766" fill="#fff" rx="12.14"/></clipPath></defs></svg>
